!!!!SEGMENT: pl-wtm--r-71-n--002_noskowski-zygmunt--powrot-suita-krakowiakow-moderato-molto-cantabile.krn
!!!cenid: 18xx:2112
!!!COM: Noskowski, Zygmunt
!!!COM-rismid: pe106604
!!!CDT: 1846/05/02-1909/07/23
!!!CNT: Polish
!!!OPR: Powrót - Suita krakowiaków
!!!OTL: Moderato molto cantabile
!!!OMV: 002
!!!PDT: 1894
!!!AGN: Secular
!!!OMD: Moderato molto cantabile
!!!SMS-siglum: PL-Wtm
!!!SMS-shelfmark: R 71/N
!!!SMS-shelfwork: 001-002 M
!!!SMS-variant:
!!!SMS-altvar:
!!!NIFC-rismid: 1001096000
!!!URL-scan: http://repozytorium.nifc.pl/skany/pl-wtm-nut--r71n
!!!ONB-nifc: UWAGA: Numeracja krakowiaków zgodna z kolejnością źródłową (I-VIII)
!!!key:
**kern	**kern	**dynam	**kern	**kern	**dynam	**kern	**text	**dynam	**kern	**text	**dynam	**kern	**dynam	**kern	**text	**dynam
*part6	*part6	*part6	*part5	*part5	*part5	*part4	*part4	*part4	*part3	*part3	*part3	*part2	*part2	*part1	*part1	*part1
*staff8	*staff7	*	*staff6	*staff5	*	*staff4	*staff4	*	*staff3	*staff3	*	*staff2	*	*staff1	*staff1	*
*Iempty	*Iempty	*	*Iempty	*Iempty	*	*Iempty	*	*	*Itenor	*	*	*Ialto	*	*Isoprn	*	*
*	*I"2do	*	*	*I"Io	*	*I"Bas	*	*	*I"Ten	*	*	*I"Alt	*	*I"Sopran	*	*
*clefF4	*clefF4	*	*clefG2	*clefG2	*	*clefF4	*	*	*clefGv2	*	*	*clefG2	*	*clefG2	*	*
*k[f#c#g#d#]	*k[f#c#g#d#]	*	*k[f#c#g#d#]	*k[f#c#g#d#]	*	*k[f#c#g#d#]	*	*	*k[f#c#g#d#]	*	*	*k[f#c#g#d#]	*	*k[f#c#g#d#]	*	*
*>[A,B,B,C]	*>[A,B,B,C]	*	*>[A,B,B,C]	*>[A,B,B,C]	*	*>[A,B,B,C]	*	*	*>[A,B,B,C]	*	*	*>[A,B,B,C]	*	*>[A,B,B,C]	*	*
*E:	*E:	*	*E:	*E:	*	*E:	*	*	*E:	*	*	*E:	*	*E:	*	*
*M2/4	*M2/4	*	*M2/4	*M2/4	*	*M2/4	*	*	*M2/4	*	*	*M2/4	*	*M2/4	*	*
=1	=1	=1	=1	=1	=1	=1	=1	=1	=1	=1	=1	=1	=1	=1	=1	=1
*>A	*>A	*	*>A	*>A	*	*>A	*	*	*>A	*	*	*>A	*	*>A	*	*
*all\right	*all\right	*	*all\right	*all\right	*	*all\right	*	*	*all\right	*	*	*all\right	*	*all\right	*	*
2r	4r	.	(8g#'/L	(8gg#'\L	p <	2ryy	.	.	2ryy	.	.	2r	.	2r	.	.
.	.	.	8g#'/J)	8gg#'\J)	[[	.	.	.	.	.	.	.	.	.	.	.
!	!	!LO:DY:rj	!	!	!	!	!	!	!	!	!	!	!	!	!	!
.	(8.G#^\L	p	4r	(8.g#^/L	>	.	.	.	.	.	.	.	.	.	.	.
.	16A\Jk)	.	.	16a/Jk)	]	.	.	.	.	.	.	.	.	.	.	.
=2	=2	=2	=2	=2	=2	=2	=2	=2	=2	=2	=2	=2	=2	=2	=2	=2
2r	4r	.	(8g#'/L	(8gg#'\L	<	2ryy	.	.	2ryy	.	.	2r	.	2r	.	.
.	.	.	8g#'/J)	8gg#'\J)	[	.	.	.	.	.	.	.	.	.	.	.
.	(8.A#X^\L	.	4r	(8.a#X^/L	>	.	.	.	.	.	.	.	.	.	.	.
.	16B\Jk)	.	.	16b/Jk)	]	.	.	.	.	.	.	.	.	.	.	.
=3	=3	=3	=3	=3	=3	=3	=3	=3	=3	=3	=3	=3	=3	=3	=3	=3
2r	4r	.	(8g#'/L	(8gg#'\L	<	2ryy	.	.	2ryy	.	.	2r	.	2r	.	.
.	.	.	8g#'/J)	8gg#'\J)	[	.	.	.	.	.	.	.	.	.	.	.
.	(8.B#X^\L	.	4r	(8.b#X^\L	>	.	.	.	.	.	.	.	.	.	.	.
.	16c#\Jk)	.	.	16cc#\Jk)	]	.	.	.	.	.	.	.	.	.	.	.
=4	=4	=4	=4	=4	=4	=4	=4	=4	=4	=4	=4	=4	=4	=4	=4	=4
4r	(8e\L	.	4r	(8ee\L	.	2ryy	.	.	2ryy	.	.	2r	.	2r	.	.
.	8d#\	.	.	8dd#\	.	.	.	.	.	.	.	.	.	.	.	.
8r	8G#\)	.	8g#/L	8gg#\)	.	.	.	.	.	.	.	.	.	.	.	.
8BB#X/ 8BBB#X/	8G#\J	.	8g#/J 8f#/	8gg#\J 8ff#\	.	.	.	.	.	.	.	.	.	.	.	.
=5!|:	=5!|:	=5!|:	=5!|:	=5!|:	=5!|:	=5!|:	=5!|:	=5!|:	=5!|:	=5!|:	=5!|:	=5!|:	=5!|:	=5!|:	=5!|:	=5!|:
*>B	*>B	*	*>B	*>B	*	*>B	*	*	*>B	*	*	*>B	*	*>B	*	*
*	*	*	*	*	*	*	*	*	*	*	*	*	*below	*	*	*below
!	!	!LO:DY:rj	!	!LO:TX:b:i:t=espressivo	!LO:DY:rj	!	!	!	!	!	!	!LO:TX:a:i:t=espressivo	!	!LO:TX:a:i:t=espressivo	!	!
8C#/L 8CC#/	8e\L 8G#\	p	(8g#'/L	(>8gg#\L 8ee'\	p	2ryy	.	.	2ryy	.	.	8e/	p	8g#/	Rze-	p
8C#/	8e\ 8G#\	.	8g#'/J	8gg#\ 8ee'\	.	.	.	.	.	.	.	8e/	<	8g#/	-cze	<
.	.	.	(8qb/	(<8qbb/	.	.	.	.	.	.	.	.	.	(8qb/	.	.
!	!	!	!	!LO:S:s=2:note:problem=note-level slur	!	!	!	!	!	!	!	!	!	!	!	!
8C#/	8e\ 8G#\	.	8a'/L)	8aa\) 8ee'\	.	.	.	.	.	.	.	8e/	.	8a/)	dzie-	.
8C#/J	8e\J 8G#\	.	8g#'/J)	8gg#\J 8ee'\)	.	.	.	.	.	.	.	8e/	[[	8g#/	-wczę	[
=6	=6	=6	=6	=6	=6	=6	=6	=6	=6	=6	=6	=6	=6	=6	=6	=6
*rep	*rep	*	*rep	*rep	*	*	*	*	*	*	*	*	*	*	*	*
8C#/L 8CC#/	8e\L 8G#\	.	(8g#'/L	(8gg#\L 8ee'\	.	2ryy	.	.	2ryy	.	.	8e/	.	8g#/	do	.
8C#/	8e\ 8G#\	.	8g#'/J	8gg#\ 8ee'\	.	.	.	.	.	.	.	8e/	.	8g#/	mi-	.
.	.	.	(8qb/	(<8qbb/	.	.	.	.	.	.	.	.	.	(8qb/	.	.
!	!	!	!	!LO:S:s=2:note:problem=note-level slur	!	!	!	!	!	!	!	!	!	!	!	!
8C#/	8e\ 8G#\	.	8a'/L)	8aa\) 8ee'\	.	.	.	.	.	.	.	8e/	.	8a/)	-łe-	.
8C#/J	8e\J 8G#\	.	8g#'/J)	8gg#\J 8ee'\)	.	.	.	.	.	.	.	8e/	.	8g#/	-go:	.
*Xrep	*Xrep	*	*Xrep	*Xrep	*	*	*	*	*	*	*	*	*	*	*	*
!!LO:LB:g=original
=7	=7	=7	=7	=7	=7	=7	=7	=7	=7	=7	=7	=7	=7	=7	=7	=7
8C#/L	8e\L 8G#\	.	8cc#\	8ccc#\ 8ee\	.	2ryy	.	.	2ryy	.	.	8e/	.	8cc#\	Nie	.
8C#/	8e\ 8G#\	.	4ee^\	4eee^\	.	.	.	.	.	.	.	4e/	.	4ee\	wie-	.
8C#/	8e\ 8G#\	.	.	.	.	.	.	.	.	.	.	.	.	.	.	.
8C#/J	8e\J 8G#\	.	(16dd#\LL	(16ddd#\LL	.	.	.	.	.	.	.	16e/	.	16dd#\	-leć	.
.	.	.	16cc#\JJ	16ccc#\JJ	.	.	.	.	.	.	.	16e/	.	16cc#\	ja	.
=8	=8	=8	=8	=8	=8	=8	=8	=8	=8	=8	=8	=8	=8	=8	=8	=8
8C#/L	8f#\L 8A\	.	8dd#\	8ddd#\ 8ff#\	.	2ryy	.	.	2ryy	.	.	4.f#/	.	(8dd#\	mam.	.
8C#/	8f#\ 8A\	.	4a/)	4aa\ 4ff#\)	.	.	.	.	.	.	.	.	.	4a/)	.	.
8C#/	8f#\ 8A\	.	.	.	.	.	.	.	.	.	.	.	.	.	.	.
8C#/J	8f#\J 8A\	.	8r	8r	.	.	.	.	.	.	.	8r	.	8r	.	.
=9	=9	=9	=9	=9	=9	=9	=9	=9	=9	=9	=9	=9	=9	=9	=9	=9
8C#/L 8CC#/	8f#\L 8A\	.	(8a'/L	(8aa\L 8ff#'\	.	2ryy	.	.	2ryy	.	.	8f#/	.	8a/	Ten	.
8C#/	8f#\ 8A\	.	8a'/J	8aa\ 8ff#'\	.	.	.	.	.	.	.	8f#/	.	8a/	me-	.
.	.	.	(8qcc#/	(<8qccc#/	.	.	.	.	.	.	.	.	.	(8qcc#/	.	.
!	!	!	!	!LO:S:s=2:note:problem=note-level slur	!	!	!	!	!	!	!	!	!	!	!	!
8C#/	8f#\ 8A\	.	8b'/L)	8bb\) 8ff#'\	.	.	.	.	.	.	.	8f#/	.	8b/)	-da-	.
8C#/J	8f#\J 8A\	.	8a'/J)	8aa\J 8ff#'\)	.	.	.	.	.	.	.	8f#/	.	8a/	-lik	.
=10	=10	=10	=10	=10	=10	=10	=10	=10	=10	=10	=10	=10	=10	=10	=10	=10
8C#/L	8f#\L 8A\	.	(8dd#'\L	(8ddd#\L 8ff#'\	.	2ryy	.	.	2ryy	.	.	8f#/	.	8dd#\	z Mat-	.
8C#/	8f#\ 8A\	.	8cc#'\	8ccc#\ 8ff#'\	.	.	.	.	.	.	.	8f#/	.	8cc#\	-ką	.
8C#/	8d#\ 8F#\	.	8b'\	8bb\ 8dd#'\	.	.	.	.	.	.	.	8d#/	.	8b\	Bos-	.
8C#/J 8CC#/	8d#\J 8F#\	.	8a'\J)	8aa\J 8dd#'\)	.	.	.	.	.	.	.	8d#/	.	8a/	-ką	.
=11	=11	=11	=11	=11	=11	=11	=11	=11	=11	=11	=11	=11	=11	=11	=11	=11
8BB#X/L 8BBB#X/	8d#\ 8G#\ 8F#\	.	8g#/	8gg#\ 8dd#\	.	2ryy	.	.	2ryy	.	.	8d#/	.	8g#/	Na	.
8BB#/ 8BBB#/	4f#\ 4G#^\	.	(4ff#\ 4a^\	(4fff#\ 4aa^\	.	.	.	.	.	.	.	4a/	.	4ff#\	dro-	.
8BB#/ 8BBB#/	.	.	.	.	.	.	.	.	.	.	.	.	.	.	.	.
8GG#/J 8GGG#/	16g#\LL 16e\ 16G#\	.	16ee\LL	16eee\LL 16gg#\	.	.	.	.	.	.	.	16g#/	.	16ee\	-gę	.
.	16f#\JJ 16d#\ 16G#\	.	16dd#\JJ)	16ddd#\JJ 16ff#\)	.	.	.	.	.	.	.	16f#/	.	16dd#\	ci	.
=12	=12	=12	=12	=12	=12	=12	=12	=12	=12	=12	=12	=12	=12	=12	=12	=12
8C#/L 8CC#/	8e\L 8c#\ 8G#\	.	(8ee\	(8eee\	.	2ryy	.	.	2ryy	.	.	(8g#/	.	(8ee\	dam.	.
8C#/J 8CC#/	8e\J 8c#\ 8G#\	.	4cc#\)	4ccc#\ 4ee\)	.	.	.	.	.	.	.	4e/)	.	4cc#\)	.	.
8C#/L	8e\L 8G#\	.	.	.	.	.	.	.	.	.	.	.	.	.	.	.
8C#/J	8e\J 8G#\	.	8r	8r	.	.	.	.	.	.	.	8r	.	8r	.	.
!!LO:PB:g=original
=13:|!	=13:|!	=13:|!	=13:|!	=13:|!	=13:|!	=13:|!	=13:|!	=13:|!	=13:|!	=13:|!	=13:|!	=13:|!	=13:|!	=13:|!	=13:|!	=13:|!
*>C	*>C	*	*>C	*>C	*	*>C	*	*	*>C	*	*	*>C	*	*>C	*	*
!	!	!	!	!	!	!	!	!	!	!	!	!	!LO:DY:a	!	!	!LO:DY:a
8GG#/	8d#\ 8Bn\ 8G#\	mf	(8.b/L 8.g#/	(8.bb\L 8.gg#\	mf	2ryy	.	.	2ryy	.	.	8.g#/	mf	8.b\	Ten	mf
8r	8r	.	.	.	.	.	.	.	.	.	.	.	.	.	.	.
.	.	.	16cc#/Jk 16a#X/	16ccc#\Jk 16aa#X\	.	.	.	.	.	.	.	16a#X/	.	16cc#\	me-	.
4r	(8B\L 8G#\	.	8dd#/L 8b/	8ddd#\L 8bb\	.	.	.	.	.	.	.	8b/	.	8dd#\	-da-	.
.	8d#\J 8B\)	.	8b/J 8g#/)	8bb\J 8gg#\)	.	.	.	.	.	.	.	8g#/	.	8b\	-lik	.
=14	=14	=14	=14	=14	=14	=14	=14	=14	=14	=14	=14	=14	=14	=14	=14	=14
4r	(8e\L 8c#\	.	(8a#X/L 8f##X/	(8aa#X\L 8ff##X\	.	2ryy	.	.	2ryy	.	.	8f##X/	.	8a#X/	po-	.
.	8d#\ 8B\	.	8b/ 8g#/	8bb\ 8gg#\	.	.	.	.	.	.	.	8g#/	.	8b/	-świę-	.
(8D#/L 8DD#/	8c#\	.	8a#/ 8f##/	8aa#\ 8ff##\	.	.	.	.	.	.	.	8f##/	.	8a#/	-co-	.
8AA#X/J 8AAA#X/)	8c#\J 8F##X\)	.	8d#/J)	8dd#\J 8cc#\)	.	.	.	.	.	.	.	8c#/	.	8d#/	-ny	.
=15	=15	=15	=15	=15	=15	=15	=15	=15	=15	=15	=15	=15	=15	=15	=15	=15
8GG#/ 8GGG#/	8B\L 8G#\	.	8g#/L	8gg#\L 8b\	.	2ryy	.	.	2ryy	.	.	8B/	.	8g#/	Weż,	.
8r	16r	.	16r	16r	.	.	.	.	.	.	.	16r	.	16r	.	.
.	16d#\Jk 16c#\ 16D#\	.	16a#X/Jk	16aa#X\Jk 16dd#\	.	.	.	.	.	.	.	16d#/	.	16a#X/	na	.
8GG#/L 8GGG#/	8d#\L 8B\ 8D#\	.	(8b/L 8g#/	(8bb\L 8gg#\	.	.	.	.	.	.	.	8g#/	.	8b/	szy-	.
!	!	!	!LO:N:n=2:acc=n#	!LO:N:n=2:acc=n#	!	!	!	!	!	!	!	!	!	!	!	!
8GG#/J 8GGG#/	8d#\J 8B#X\ 8F#\	.	8g#/J 8f#X/)	8gg#\J 8ff#X\)	.	.	.	.	.	.	.	8f#X/	.	8g#/	-ję	.
=16	=16	=16	=16	=16	=16	=16	=16	=16	=16	=16	=16	=16	=16	=16	=16	=16
(8qGGG#/	.	.	.	.	.	.	.	.	.	.	.	.	.	.	.	.
*	*	*	*	*	*	*	*	*	*	*	*	*	*above	*	*	*
([8GG#^>/L)	8c#\L 8G#\ 8E\	<	(4cc#/ 4e/	(4ccc#\ 4ee\	<	2ryy	.	.	2ryy	.	.	(4e/	<	(4cc#\	wdziej,	<
32GG#/LL]	8c#\ 8G#\ 8E\	.	.	.	.	.	.	.	.	.	.	.	.	.	.	.
32FF#/	.	.	.	.	.	.	.	.	.	.	.	.	.	.	.	.
32EE/	.	.	.	.	.	.	.	.	.	.	.	.	.	.	.	.
32DD#/JJJ	.	.	.	.	.	.	.	.	.	.	.	.	.	.	.	.
8CC#/L)	8c#\ 8G#\ 8E\	[	4ee/ 4g#/)	4eee\ 4gg#\)	[	.	.	.	.	.	.	4g#/)	[	4ee\)	.	[
(8AAA#X/J	8c#\J 8G#\ 8E\	.	.	.	.	.	.	.	.	.	.	.	.	.	.	.
=17	=17	=17	=17	=17	=17	=17	=17	=17	=17	=17	=17	=17	=17	=17	=17	=17
4DD#/)	8c#\L 8A#X\ 8D#\	.	(8.dd#/L 8.f##X/	(8.ddd#\L 8.ff##X\	.	2ryy	.	.	2ryy	.	.	8.f##X/	.	8.dd#\	I	.
.	8c#\J 8F##X\ 8D#\	.	.	.	.	.	.	.	.	.	.	.	.	.	.	.
.	.	.	16cc#/Jk 16a#X/	16ccc#\Jk 16aa#X\	.	.	.	.	.	.	.	16a#X/	.	16cc#\	pa-	.
4r	8F##\L 8D#\	.	8b/L 8d#/	8bb\L 8dd#\	.	.	.	.	.	.	.	8d#/	.	8b\	-mię-	.
.	8c#\J 8D#\	.	8a#/J 8f##/)	8aa#\J 8ff##\)	.	.	.	.	.	.	.	8f##/	.	8a#X/	-taj	.
!!LO:LB:g=original
=18	=18	=18	=18	=18	=18	=18	=18	=18	=18	=18	=18	=18	=18	=18	=18	=18
2GG#/	(8F##X\L 8C#\	.	(8cc#/L 8e/	(8ccc#\L 8ee\	.	2ryy	.	.	2ryy	.	.	8e/	.	8cc#\	w ob-	.
.	8G#\ 8D#\	.	8b/ 8d#/	8bb\ 8dd#\	.	.	.	.	.	.	.	8d#/	.	8b\	-cej	.
.	8B\ 8D#\)	.	8d#/	8dd#\ 8b\	.	.	.	.	.	.	.	8B/	.	8d#/	stro-	.
.	8B\J 8D#\	.	8g#/J)	8gg#\J 8b\)	.	.	.	.	.	.	.	8B/	.	8g#/	-nie	.
=19	=19	=19	=19	=19	=19	=19	=19	=19	=19	=19	=19	=19	=19	=19	=19	=19
4DD#/	(8A#X\L 8D#\	.	(8f##X/L	(8ff##X\L 8a#X\	.	2ryy	.	.	2ryy	.	.	8A#X/	.	8f##X/	O	.
.	8c#\J 8D#\)	.	8a#X/J	8aa#X\J 8cc#\	.	.	.	.	.	.	.	8c#/	.	8a#X/	dziew-	.
(8AA#X/L 8AAA#X/	(8c#\L 8F##X\	.	8.dd#/L 8.f##/	8.ddd#\L 8.ff##\	.	.	.	.	.	.	.	8.f##X/	.	8.dd#\	-czy-	.
8D#/J 8DD#/)	8A#\J 8F##\)	.	.	.	.	.	.	.	.	.	.	.	.	.	.	.
.	.	.	16cc#/Jk 16f##/)	16ccc#\Jk 16ff##\)	.	.	.	.	.	.	.	16f##/	.	16cc#\	-nie	.
=20	=20	=20	=20	=20	=20	=20	=20	=20	=20	=20	=20	=20	=20	=20	=20	=20
4.GG#/ 4.GGG#/	4.B\ 4.G#\	>	(16b/LL 16g#/	(16bb\LL 16gg#\	>	2ryy	.	.	2ryy	.	.	(4.g#/	>	2b\	swej,	>]
.	.	.	16d#/)	16dd#\ 16b\)	.	.	.	.	.	.	.	.	.	.	.	.
.	.	.	(16d#/	(16dd#\ 16b\	.	.	.	.	.	.	.	.	.	.	.	.
.	.	.	16b/JJ 16g#/)	16bb\JJ 16gg#\)	.	.	.	.	.	.	.	.	.	.	.	.
.	.	.	8b/L 8g#/	8bb\L 8gg#\	.	.	.	.	.	.	.	.	.	.	.	.
!	!LO:N:n=2:acc=n#	!	!LO:N:n=2:acc=n#	!LO:N:n=2:acc=n#	!	!	!	!	!	!	!	!LO:N:acc=n#	!	!	!	!
8GG#/ 8GGG#/	8B\ 8F#X\ 8D#\	]	8b/J 8f#X/	8bb\J 8ff#X\ 8dd#\	]	.	.	.	.	.	.	8f#X/)	]	.	.	.
=21	=21	=21	=21	=21	=21	=21	=21	=21	=21	=21	=21	=21	=21	=21	=21	=21
!	!	!LO:DY:rj	!	!	!	!	!	!	!	!	!	!	!	!	!	!LO:DY:a
(4C#/ 4CC#/	8An\L 8E\	p	(8.an/L 8.e/	(8.aan\L 8.ee\ 8.cc#\	p	2ryy	.	.	2ryy	.	.	8.e/	p	8.an/	I	p
.	8A\ 8E\	.	.	.	.	.	.	.	.	.	.	.	.	.	.	.
.	.	.	16cc#/Jk	16ccc#\Jk	.	.	.	.	.	.	.	16e/	.	16cc#\	pa-	.
4Dn/ 4DDn/)	8G#\ 8E\	.	8b/L 8e/	8bb\L 8ee\	.	.	.	.	.	.	.	8e/	.	8b\	-mię-	.
.	8B\J 8E\	.	8g#/J 8e/)	8gg#\J 8ee\)	.	.	.	.	.	.	.	8e/	.	8g#/	-taj	.
=22	=22	=22	=22	=22	=22	=22	=22	=22	=22	=22	=22	=22	=22	=22	=22	=22
4.C#/ 4.CC#/	8A\L 8E\	.	(8b/L 8e/	(8bb\L 8ee\	.	2ryy	.	.	2ryy	.	.	8e/	.	8b/	w ob-	.
.	8A\ 8E\	.	8a/ 8e/	8aa\ 8ee\	.	.	.	.	.	.	.	8e/	.	8a/	-cej	.
.	8A\ 8E\	.	8e/	8ee\ 8a\	.	.	.	.	.	.	.	8e/	.	8e/	stro-	.
8C#/ 8CC#/	8A\J	.	8f#/J 8e/)	8ff#\J 8ee\ 8a\)	.	.	.	.	.	.	.	8e/	.	8f#/	-nie	.
!!LO:PB:g=original
=23	=23	=23	=23	=23	=23	=23	=23	=23	=23	=23	=23	=23	=23	=23	=23	=23
*	*^	*	*	*	*	*	*	*	*	*	*	*	*	*	*	*
4.D#/ 4.DD#/	4B/	4ryy	.	(8g#/L 8d#/	(8gg#\L 8dd#\ 8b\	.	2r	.	.	2r	.	.	8d#/	.	8g#/	O	.
.	.	.	.	8b/J 8d#/	8bb\J 8dd#\	.	.	.	.	.	.	.	8d#/	.	8b\	dziew-	.
.	(<8c#/L	4F##X\	.	8a#X/L	8aa#X\L 8cc#\	.	.	.	.	.	.	.	8c#/	.	8a#X/	-czy-	.
8D#/ 8DD#/	8d#/J)	.	.	8b/J)	8bb\J 8dd#\)	.	.	.	.	.	.	.	8d#/	.	8b\	-nie	.
*	*v	*v	*	*	*	*	*	*	*	*	*	*	*	*	*	*	*
=24	=24	=24	=24	=24	=24	=24	=24	=24	=24	=24	=24	=24	=24	=24	=24	=24
8GG#/L	[4B\ [4G#\	.	[4g#/	[4gg#\ [4b\	.	2r	.	.	2r	.	.	[4B/	.	[4g#/	swej.	.
(8E/ 8EE/	.	.	.	.	.	.	.	.	.	.	.	.	.	.	.	.
8D#/ 8DD#/	8B\] 8G#\]	.	8g#/]	8gg#\] 8b\]	.	.	.	.	.	.	.	8B/]	.	8g#/]	.	.
8BB/J 8BBB/)	8r	.	8r	8r	.	.	.	.	.	.	.	8r	.	8r	.	.
=25	=25	=25	=25	=25	=25	=25	=25	=25	=25	=25	=25	=25	=25	=25	=25	=25
(8.GGG#/L	(8.GG#/L	p	2r	2r	.	8.GG#/	Rze-	p	2r	.	.	2r	.	2r	.	.
16AAAn/Jk	16AAn/Jk	.	.	.	.	16AA/	-cze	.	.	.	.	.	.	.	.	.
8CC#/L)	8C#/L)	.	.	.	.	8C#/	dziew-	.	.	.	.	.	.	.	.	.
8CC#/J	8C#/J	.	.	.	.	8C#/	-czę	.	.	.	.	.	.	.	.	.
=26	=26	=26	=26	=26	=26	=26	=26	=26	=26	=26	=26	=26	=26	=26	=26	=26
(8BBB#X/L	(8BB#X\L	<	2r	2r	.	8BB#X/	do	<	2r	.	.	2r	.	2r	.	.
8DD#/	8D#\	.	.	.	.	8D#\	mi-	.	.	.	.	.	.	.	.	.
8AA/	8A\	.	.	.	.	8A\	-łe-	[	.	.	.	.	.	.	.	.
8GG#/J)	8G#\J)	[	.	.	.	8G#\	-go,	.	.	.	.	.	.	.	.	.
=27	=27	=27	=27	=27	=27	=27	=27	=27	=27	=27	=27	=27	=27	=27	=27	=27
(8FF#/L	(8.F#^\L	.	2r	2r	.	8F#\	Rze-	.	8.F#/	Rze-	p	2r	.	2r	.	.
8E/J 8EE/	.	.	.	.	.	8E\	-cze	.	.	.	.	.	.	.	.	.
.	16G#\Jk	.	.	.	.	.	.	.	16G#/	-cze	.	.	.	.	.	.
8D#/L 8DD#/	8A\L)	.	.	.	.	8D#\	do	.	8A/	dziew-	.	.	.	.	.	.
8C#/J 8CC#/)	8A\J	.	.	.	.	8C#/	mi-	.	8A/	-czę	.	.	.	.	.	.
!!LO:LB:g=original
=28	=28	=28	=28	=28	=28	=28	=28	=28	=28	=28	=28	=28	=28	=28	=28	=28
!	!	!	!	!	!	!	!	!LO:DY:a	!	!	!	!	!	!	!	!
2BB#X/ 2BBB#X/	(8A\L	<	4r	4r	.	4BB#X/	-łe-	<	8A/	do	<	2r	.	2r	.	.
.	8G#\	.	.	.	.	.	.	.	8G#/	mi-	.	.	.	.	.	.
.	8d#\	.	8r	8r	.	4BB#/	-go:	[	8d#\	-łe-	[	.	.	.	.	.
!	!	!	!	!	!LO:DY:rj	!	!	!	!	!	!	!	!	!	!	!
.	8G#\J)	[	8g#/ 8f#/	8gg#\ 8ff#\	mf	.	.	.	8G#/	-go:	.	.	.	.	.	.
=29	=29	=29	=29	=29	=29	=29	=29	=29	=29	=29	=29	=29	=29	=29	=29	=29
!	!LO:TX:b:i:t=cantabile	!LO:DY:rj	!	!	!	!	!	!LO:DY:rj	!	!	!LO:DY:rj	!	!LO:DY:rj	!	!	!LO:DY:a:rj
8C#/L 8CC#/	4.G#\	mf	(8g#/L 8e'/	(8gg#\L 8ee'\	.	4.C#/	.	mf	4.G#/	Ten	mf	8e/	mf	8g#/	Rze-	mf
8C#/	.	.	8g#/J 8e'/	8gg#\ 8ee'\	.	.	.	.	.	.	.	8e/	.	8g#/	-cze	.
.	.	.	(8qb/	(<8qbb/	.	.	.	.	.	.	.	.	.	(8qb/	.	.
!	!	!	!LO:S:s=2:note:problem=note-level slur	!LO:S:s=2:note:problem=note-level slur	!	!	!	!	!	!	!	!	!	!	!	!
8C#/	.	.	8a/L) 8e'/	8aa\ 8ee'\)	.	.	.	.	.	.	.	8e/	.	8a/)	dziew-	.
8C#/J	(8G#\	.	8g#/J 8e'/)	8gg#\J 8ee'\)	.	8C#/	.	.	8G#/	me-	.	8e/	.	8g#/	-czę	.
=30	=30	=30	=30	=30	=30	=30	=30	=30	=30	=30	=30	=30	=30	=30	=30	=30
*	*	*	*rep	*rep	*	*	*	*	*	*	*	*	*	*	*	*
8C#/L 8CC#/	4.c#\	.	(8g#/L 8e'/	(8gg#\L 8ee'\	.	4.C#/	.	.	4.c#\	-da-	.	8e/	.	8g#/	do	.
8C#/	.	.	8g#/J 8e'/	8gg#\ 8ee'\	.	.	.	.	.	.	.	8e/	.	8g#/	mi-	.
.	.	.	(8qb/	(<8qbb/	.	.	.	.	.	.	.	.	.	(8qb/	.	.
!	!	!	!LO:S:s=2:note:problem=note-level slur	!LO:S:s=2:note:problem=note-level slur	!	!	!	!	!	!	!	!	!	!	!	!
8C#/	.	.	8a/L 8e'/)	8aa\ 8ee'\)	.	.	.	.	.	.	.	8e/	.	8a/)	-łe-	.
8C#/J	8B\	.	8g#/J 8e'/)	8gg#\J 8ee'\)	.	8C#/	.	.	8B\	-lik	.	8e/	.	8g#/	-go:	.
*	*	*	*Xrep	*Xrep	*	*	*	*	*	*	*	*	*	*	*	*
=31	=31	=31	=31	=31	=31	=31	=31	=31	=31	=31	=31	=31	=31	=31	=31	=31
8C#/L 8CC#/	4A\	.	8cc#/ 8e/	8ccc#\ 8ee\	.	4.C#/	.	.	(4A/	z Mat-	.	8e/	.	8cc#\	Nie-	.
8C#/	.	.	4e^>/	4eee\ 4ee^\	.	.	.	.	.	.	.	4e/	.	4ee\	-wie-	.
8C#/	8G#\L	.	.	.	.	.	.	.	8G#/)	.	.	.	.	.	.	.
8C#/J	8B\J	.	(16dd#/LL 16f#/	(16ddd#\LL 16ff#\	.	8C#/	.	.	8B/	-ką	.	16f#/	.	16dd#\	-leć	.
.	.	.	16cc#/JJ 16e/)	16ccc#\JJ 16ee\)	.	.	.	.	.	.	.	16e/	.	16cc#\	ja	.
=32	=32	=32	=32	=32	=32	=32	=32	=32	=32	=32	=32	=32	=32	=32	=32	=32
8C#/L 8CC#/	4A\)	.	(>8dd#/ 8f#/	(8ddd#\ 8ff#\	.	4C#/	.	.	4A/	Bos-	.	4.f#/	.	(8dd#\	mam,	.
8C#/	.	.	4a/ 4f#/)	4aa\ 4ff#\)	.	.	.	.	.	.	.	.	.	4a/)	.	.
8C#/	((8A\L	.	.	.	.	8C#/	.	.	8A/	-ką	.	.	.	.	.	.
8C#/J	8c#\J)	.	8r	8r	.	8C#/	.	.	8c#\	Na	.	8r	.	8r	.	.
=33	=33	=33	=33	=33	=33	=33	=33	=33	=33	=33	=33	=33	=33	=33	=33	=33
8C#/L 8CC#/	8e\L	.	(8a/L 8f#'/	(8aa\L 8ff#'\	.	4C#/	.	.	(8e\L	dro-	.	8f#/	.	8a/	Ten	.
8C#/	8d#\	.	8a/J 8f#'/	8aa\ 8ff#'\	.	.	.	.	8d#\J)	.	.	8f#/	.	8a/	me-	.
.	.	.	(8qcc#/	(<8qccc#/	.	.	.	.	.	.	.	.	.	(8qcc#/	.	.
!	!	!	!LO:S:s=2:note:problem=note-level slur	!LO:S:s=2:note:problem=note-level slur	!	!	!	!	!	!	!	!	!	!	!	!
8C#/	8G#\	.	8b/L) 8f#'/	8bb\) 8ff#'\	.	8C#/	.	.	8A/	-gę	.	8f#/	.	8b\)	-da-	.
8C#/J	8c#\J)	.	8a/J 8f#'/)	8aa\J 8ff#'\)	.	8C#/	.	.	8c#\	ci	.	8f#/	.	8a/	-lik	.
!!LO:PB:g=original
=34	=34	=34	=34	=34	=34	=34	=34	=34	=34	=34	=34	=34	=34	=34	=34	=34
8C#/ 8CC#/	(8f#\L	.	(8dd#/L 8a/	(8ddd#\L 8aa\ 8ff#\	.	4.C#/	dam.	.	8f#\	dam	.	8a/	.	8dd#\	z Mat-	.
4C#/ 4CC#/	8e\	.	8cc#/ 8g#/	8ccc#\ 8gg#\ 8ee\	.	.	.	.	8e\	me-	.	8g#/	.	8cc#\	-ką	.
.	8d#\	.	8b/ 8f#/	8bb\ 8ff#\ 8dd#\	.	.	.	.	8d#\	-da-	.	8f#/	.	8b\	Bos-	.
8C#/ 8CC#/	8c#\J)	.	8a/J 8d#/)	8aa\J 8ee\ 8cc#\)	.	8C#/	Na	.	8c#\	-lik	.	8e/	.	8a/	-ką	.
=35	=35	=35	=35	=35	=35	=35	=35	=35	=35	=35	=35	=35	=35	=35	=35	=35
4BB#X/ 4BBB#X/	(4d#\	.	8g#/ 8f#/	8gg#\ 8ff#\ 8dd#\	.	4BB#X/	dro-	.	(4d#\	dam	.	8f#/	.	8g#/	Na	.
.	.	.	(4ff#^\	(4fff#^<\	.	.	.	.	.	.	.	4g#/	.	4ff#\	dro-	.
8GG#/L 8GGG#/	4B#X\ 4F#\)	.	.	.	.	8GG#/	-gę	.	4B#X\)	.	.	.	.	.	.	.
8GG#/J 8GGG#/	.	.	16ee\LL	16eee\LL	.	8GG#/	ci	.	.	.	.	16g#/	.	16ee\	-gę	.
.	.	.	16dd#\JJ)	16ddd#\JJ)	.	.	.	.	.	.	.	16g#/	.	16dd#\	ci	.
=36	=36	=36	=36	=36	=36	=36	=36	=36	=36	=36	=36	=36	=36	=36	=36	=36
(4C#/ 4CC#/	(8c#\L 8E\	.	(4ee\ 4g#\	4eee\ 4gg#\	.	(4C#/	.	.	(4c#\	dam	.	(4g#/	.	(4ee\	dam	.
.	8e\J 8c#\ 8G#\)	.	.	.	.	.	.	.	.	.	.	.	.	.	.	.
4D#/ 4DD#/	8r	.	4dd#\ 4b#X\ 4f#\	(16ff#\LL	.	4D#/	.	.	4f#\	.	.	4b#X\	.	4dd#\	.	.
.	.	.	.	16gg#\	.	.	.	.	.	.	.	.	.	.	.	.
.	8d#\ 8B#X\ 8F#\	.	.	16bb#X\	.	.	.	.	.	.	.	.	.	.	.	.
.	.	.	.	16ddd#\JJ	.	.	.	.	.	.	.	.	.	.	.	.
=37	=37	=37	=37	=37	=37	=37	=37	=37	=37	=37	=37	=37	=37	=37	=37	=37
4E/ 4EE/	8r	.	4cc#/ 4g#/ 4e/	16gg#\LL	.	4E\	.	.	4e\	.	.	4g#/	.	4cc#\	.	.
.	.	.	.	16ff#\	.	.	.	.	.	.	.	.	.	.	.	.
.	8c#\ 8G#\	.	.	16gg#\	.	.	.	.	.	.	.	.	.	.	.	.
.	.	.	.	16ccc#\JJ	.	.	.	.	.	.	.	.	.	.	.	.
4F#/ 4FF#/)	8r	.	4a/ 4f#/	16ff#\LL	.	4F#\	.	.	4c#\	.	.	[4f#/	.	4a/	.	.
.	.	.	.	16gg#\	.	.	.	.	.	.	.	.	.	.	.	.
.	8c#\ 8A\	.	.	16aa\	.	.	.	.	.	.	.	.	.	.	.	.
.	.	.	.	16ccc#\JJ	.	.	.	.	.	.	.	.	.	.	.	.
=38	=38	=38	=38	=38	=38	=38	=38	=38	=38	=38	=38	=38	=38	=38	=38	=38
!	!	!	!	!	!LO:HP:t=diminuendo	!	!	!	!	!	!	!	!	!	!	!
(4BBn/ 4BBBn/	8r	.	4bn/ 4f#/ 4d#/	16bbn\LL	>	4BB/	.	.	4d#\	.	.	4f#/]	.	4b/	.	.
.	.	.	.	16fff#\	.	.	.	.	.	.	.	.	.	.	.	.
!	!	!LO:HP:t=dimin	!	!	!	!	!	!	!	!	!	!	!	!	!	!
.	8Bn\ 8D#\	>	.	16ddd#\	.	.	.	.	.	.	.	.	.	.	.	.
.	.	.	.	16bb\JJ	.	.	.	.	.	.	.	.	.	.	.	.
!	!	!	!	!	!	!	!	!LO:HP:b	!	!	!LO:HP:b	!	!	!	!	!LO:HP:b
4C#/ 4CC#/	8r	.	4a/ 4e/ 4c#/	16aa\LL	.	4C#/	.	>	4c#\	.	>	4e/	>	4a/	.	>
.	.	.	.	16gg#\	.	.	.	.	.	.	.	.	.	.	.	.
.	8A\ 8E\	.	.	16ff#\	.	.	.	.	.	.	.	.	.	.	.	.
.	.	.	.	16ee\JJ	.	.	.	.	.	.	.	.	.	.	.	.
=39	=39	=39	=39	=39	=39	=39	=39	=39	=39	=39	=39	=39	=39	=39	=39	=39
4D#/ 4DD#/	8r	.	4f#/	16ff#\LL	.	4D#\	.	.	4A/	.	.	2B/)	.	4f#/	.	.
.	.	.	.	16gg#\	.	.	.	.	.	.	.	.	.	.	.	.
.	8B\ 8A\	.	.	16aa\	.	.	.	.	.	.	.	.	.	.	.	.
.	.	.	.	16ccc#\JJ	.	.	.	.	.	.	.	.	.	.	.	.
4E/ 4EE/)	8r	.	4g#/)	16bb\LL	.	4E\)	.	.	4G#/)	.	.	.	.	4g#/)	.	.
.	.	.	.	16ggg#\	.	.	.	.	.	.	.	.	.	.	.	.
.	8B\ 8G#\	.	.	16eee\	.	.	.	.	.	.	.	.	.	.	.	.
.	.	.	.	16bb\JJ)	.	.	.	.	.	.	.	.	.	.	.	.
!!LO:LB:g=original
=40	=40	=40	=40	=40	=40	=40	=40	=40	=40	=40	=40	=40	=40	=40	=40	=40
!	!	!LO:DY:rj	!	!	!LO:DY:rj	!	!	!LO:DY:rj	!	!	!LO:DY:rj	!	!LO:DY:a:rj	!	!	!LO:DY:rj
8.D#/L 8.DD#/	8.c#\L 8.A\	p	8.g#/L	8.gg#\L 8.cc#\	p	8.D#\	.	p	8.A/	.	p	8.c#/	p	8.g#/	Ten	p
16D#/Jk 16DD#/	16c#\Jk 16A\	.	16f#/Jk	16ff#\Jk 16cc#\	.	16D#\	.	.	16A/	.	.	16c#/	.	16f#/	me-	.
8D#/L 8DD#/	8c#\L 8A\	.	8a/L 8f#/	8aa\L 8ff#\	.	8D#\	.	.	8c#\	.	.	8f#/	.	8a/	-da-	.
8E/J 8EE/	8c#\J 8G#\	.	8g#/J	8gg#\J 8cc#\	.	8E\	.	.	8c#\	.	.	8g#/	.	8g#/	-li	.
=41	=41	=41	=41	=41	=41	=41	=41	=41	=41	=41	=41	=41	=41	=41	=41	=41
8F#/L 8FF#/	8d#\L 8c#\	.	8b/L	8bb\L 8dd#\	.	8F#\	.	.	8c#\	.	.	8d#/	.	8b/	z Mat-	.
8F#/J 8FF#/	8d#\J 8c#\	.	8a/J	8aa\J 8dd#\	.	8F#\	.	.	8c#\	.	.	8d#/	.	8a/	-ką	.
8AA/L 8AAA/	8c#\L 8F#\	.	(16cc#/LL	(16ccc#\LL	.	8AA/	.	.	8F#/	.	.	8c#/	.	(16cc#/LL	Bos-	.
.	.	.	16d#/J)	16ff#\J)	.	.	.	.	.	.	.	.	.	16d#/JJ)	.	.
8FF#/J	8c#\J 8A\ 8F#\	.	8d#/J	8dd#\J 8cc#\	.	8F#\	.	.	8A/	.	.	8c#/	.	8d#/	-ką	.
=42	=42	=42	=42	=42	=42	=42	=42	=42	=42	=42	=42	=42	=42	=42	=42	=42
(16EE/LL	(16c#\LL 16G#\ 16E\	.	(16e/LL	(16ee\LL 16cc#\	.	(16E\LL	.	.	(16G#/LL	.	.	(16c#/LL	.	(16e/LL	Na	.
16DD#/JJ	16F#\JJ 16D#\	.	16f#/JJ 16d#/	16ff#\JJ 16dd#\	.	16D#\JJ)	.	.	16F#/JJ)	.	.	16d#/JJ)	.	16f#/JJ)	.	.
!	!	!LO:HP:t=crescendo	!	!	!LO:HP:t=crescendo	!	!	!	!	!	!	!	!	!	!	!
4C#/ 4CC#/)	4E\)	<	4g#/ 4e/)	4gg#\ 4ee\)	<	4C#/	.	.	4E/	.	.	4e/	.	4g#/	dro-	.
!	!	!	!	!	!	!	!	!LO:HP:b	!	!	!	!	!	!	!	!
8E/ 8EE/	8c#\ 8G#\	.	8g#/	8gg#\ 8cc#\	.	8E\	.	<	8G#/	.	<	8c#/	.	8g#/	-gę,	.
=43	=43	=43	=43	=43	=43	=43	=43	=43	=43	=43	=43	=43	=43	=43	=43	=43
8D#/ 8DD#/	(16c#\LL	.	(16a#X/LL 16f##X/	(16aa#X\LL 16ff##X\	.	8D#\	.	.	(16c#\LL	.	.	(16f##X/LL	<	(16a#X/LL	na	<
.	16B#X\JJ	.	16b#X/JJ 16g#/	16bb#X\JJ 16gg#\	.	.	.	.	16B#X\JJ)	.	.	16g#/JJ)	.	16b#X/JJ)	.	.
4D#/ 4DD#/	4A#X\)	.	4cc#/ 4f##/)	4ccc#\ 4ff##\)	.	4D#\	.	.	4A#X/	.	.	4f##/	.	4cc#\	dro-	.
8D#/ 8DD#/	8d#\	.	8cc#/ 8a#/	8ccc#\ 8aa#\	.	8D#\	.	.	8d#\	.	.	8a#X/	.	8cc#\	-gę,	.
=44	=44	=44	=44	=44	=44	=44	=44	=44	=44	=44	=44	=44	=44	=44	=44	=44
!	!	!LO:DY:rj	!	!	!LO:DY:rj	!	!	!LO:DY:rj	!	!	!LO:DY:rj	!	!LO:DY:rj	!	!	!
8GG#/ 8GGG#/	(16f#\LL	f	(16dd#\LL 16b#X\	(16ddd#\LL 16bb#X\	f	8GG#/	.	f	(16f#\LL	.	f	(16b#X\LL	f	(16dd#\LL	na	f
.	16e\JJ)	.	16ee\JJ 16cc#\	16eee\JJ 16ccc#\	.	.	.	.	16e\JJ)	.	.	16cc#\JJ)	.	16ee\JJ)	.	.
4.G#/ 4.GG#^^/	[4.d#^\	.	[4.ff#\ [4.b#^\)	[4.fff#\ [4.bb#^\)	.	[4.G#^\	.	.	[4.d#^\	.	.	[4.b#^\	.	[4.ff#^\	dro-	.
=45	=45	=45	=45	=45	=45	=45	=45	=45	=45	=45	=45	=45	=45	=45	=45	=45
!	!	!	!	!	!	!	!	!LO:HP:b	!	!	!LO:HP:b	!	!	!	!	!
4GG#/ 4GGG#^>/	4d#\]	>	4ff#\] 4b#\]	4fff#\] 4bb#\]	>	4G#\]	.	>	4d#\]	.	>	4b#\]	>	4ff#\]	.	.
!	!	!	!	!	!	!	!	!	!	!	!	!	!	!	!	!LO:DY:a
8GG#/L 8GGG#/	8d#\L 8B#X\ 8F#\	.	8b#X/L 8f#/	8bb#X\L 8ff#\ 8dd#\	.	8G#\	.	.	8d#\	.	.	8f#/	.	8b#X\	-gę	>
8GG#/J 8GGG#/	8d#\J 8B#\ 8F#\	]]	8b#/J 8f#/	8bb#\J 8ff#\ 8dd#\	]	8G#\	.	]	8d#\	.	]	8f#/	]	8b#\	ci	]
!!LO:PB:g=original
=46	=46	=46	=46	=46	=46	=46	=46	=46	=46	=46	=46	=46	=46	=46	=46	=46
!	!	!LO:DY:rj	!	!	!LO:DY:rj	!	!	!LO:DY:b:rj	!	!	!LO:DY:b:rj	!	!LO:DY:b:rj	!	!	!LO:DY:rj
4C#/ 4CC#/	8c#\L 8E\	p	(8.cc#/L 8.e/	(8.ccc#\L 8.ee\	p	(4C#/	.	p	(4c#\	.	p	(4e/	p	(8.cc#\L	dam.	p
.	8c#\J 8G#\ 8E\	.	.	.	.	.	.	.	.	.	.	.	.	.	.	.
.	.	.	16dd#/Jk	16ddd#\Jk	.	.	.	.	.	.	.	.	.	16dd#\Jk	.	.
4FF#/	8r	.	16cc#\LL	16ccc#\LL	.	4F#\	.	.	4A/	.	.	4f#/	.	8.cc#\L	.	.
.	.	.	16b\	16bb\	.	.	.	.	.	.	.	.	.	.	.	.
.	8c#\ 8A\ 8F#\	.	16a\)	16aa\)	.	.	.	.	.	.	.	.	.	.	.	.
.	.	.	16b\JJ	16bb\JJ	.	.	.	.	.	.	.	.	.	16dd#\Jk	.	.
=47	=47	=47	=47	=47	=47	=47	=47	=47	=47	=47	=47	=47	=47	=47	=47	=47
4C#/ 4CC#/	8r	.	(8.cc#\L	(8.ccc#\L	.	4C#/	.	.	4G#/	.	.	4e/	.	8.cc#\L	.	.
.	8c#\ 8G#\ 8E\	.	.	.	.	.	.	.	.	.	.	.	.	.	.	.
.	.	.	16dd#\Jk	16ddd#\Jk	.	.	.	.	.	.	.	.	.	16dd#\Jk	.	.
4FF#/	8r	.	16cc#/LL	16ccc#\LL	.	4F#\	.	.	4A/	.	.	4d#/	.	8.cc#\L	.	.
.	.	.	16a/	16aa\	.	.	.	.	.	.	.	.	.	.	.	.
.	8c#\ 8A\ 8D#\	.	16f#/	16ff#\	.	.	.	.	.	.	.	.	.	.	.	.
.	.	.	16a/JJ)	16aa\JJ)	.	.	.	.	.	.	.	.	.	16dd#\Jk	.	.
=48	=48	=48	=48	=48	=48	=48	=48	=48	=48	=48	=48	=48	=48	=48	=48	=48
[2C#/ [2CC#/	[2c#\ [2G#\ [2E\	.	(16cc#\LL	(16ccc#\LL	.	[2C#/)	.	.	[2G#/)	.	.	[2e/)	.	[2cc#\)	.	.
.	.	.	16g#\	16gg#\	.	.	.	.	.	.	.	.	.	.	.	.
.	.	.	16ee\	16eee\	.	.	.	.	.	.	.	.	.	.	.	.
.	.	.	16dd#\JJ	16ddd#\JJ	.	.	.	.	.	.	.	.	.	.	.	.
*	*	*	*	*8va	*	*	*	*	*	*	*	*	*	*	*	*
!	!	!	!LO:TX:a:i:t=morendo	!	!	!	!	!	!	!	!	!	!	!	!	!
.	.	>	16ee\LL	16eee\LL	.	.	.	.	.	.	.	.	.	.	.	.
.	.	.	16ff#\	16fff#\	.	.	.	.	.	.	.	.	.	.	.	.
.	.	.	16aa\	16aaa\	.	.	.	.	.	.	.	.	.	.	.	.
.	.	.	16gg#\JJ	16ggg#\JJ	.	.	.	.	.	.	.	.	.	.	.	.
=49	=49	=49	=49	=49	=49	=49	=49	=49	=49	=49	=49	=49	=49	=49	=49	=49
2C#/_ 2CC#/_	2c#\_ 2G#\_ 2E\_	.	16ff##X\LL	16fff##X\LL	.	2C#/_	.	.	2G#/_	.	.	2e/_	.	2cc#\_	.	.
.	.	.	16gg#\	16ggg#\	.	.	.	.	.	.	.	.	.	.	.	.
.	.	.	16bb\	16bbb\	.	.	.	.	.	.	.	.	.	.	.	.
.	.	.	16gg#\JJ	16ggg#\JJ	.	.	.	.	.	.	.	.	.	.	.	.
!	!LO:TX:b:t=rallent:dur=4q:ext=ud:problem=text with extension lines	!	!	!LO:TX:b:t=rallent:dur=5q:ext=ud:problem=text with extension lines	!	!	!	!	!	!	!	!	!	!	!	!
.	.	]	16bb\LL	16bbb\LL	.	.	.	.	.	.	.	.	.	.	.	.
.	.	.	16gg#\	16ggg#\	.	.	.	.	.	.	.	.	.	.	.	.
.	.	.	(8qbb/	(8qbbb/	.	.	.	.	.	.	.	.	.	.	.	.
.	.	.	16aa\)	16aaa\)	.	.	.	.	.	.	.	.	.	.	.	.
.	.	.	16gg#\JJ	16ggg#\JJ	.	.	.	.	.	.	.	.	.	.	.	.
=50	=50	=50	=50	=50	=50	=50	=50	=50	=50	=50	=50	=50	=50	=50	=50	=50
4C#/] 4CC#/]	4c#\] 4G#\] 4E\]	pp	4.eee\)	4.eeee\)	.	4C#/]	.	.	4G#/]	.	.	4e/]	.	4cc#\]	.	.
!	!LO:TX:t=P:problem=arpeggio przez 2 systemy	!	!	!	!LO:DY:rj	!	!	!	!	!	!	!	!	!	!	!
4C#/: 4CC#:/	4c#\: 4G#\: 4E:\	.	.	.	pp	4r	.	.	4r	.	.	4r	.	4r	.	.
!	!	!	!	!LO:TX:t=P:problem=arpeggio przez 2 systemy	!	!	!	!	!	!	!	!	!	!	!	!
.	.	.	8gg#\: 8dd#':\	8dddd#\: 8ggg#\: 8ddd#':\	.	.	.	.	.	.	.	.	.	.	.	.
=51	=51	=51	=51	=51	=51	=51	=51	=51	=51	=51	=51	=51	=51	=51	=51	=51
!	!LO:TX:t=P:problem=arpeggio przez 2 systemy	!	!	!LO:TX:t=P:problem=arpeggio przez 2 systemy	!	!	!	!	!	!	!	!	!	!	!	!
2C#/: 2CC#:/	2c#\: 2G#\: 2E;:\	.	2gg#\: 2ee\: 2cc#;:\	2cccc#\: 2ggg#\: 2eee\: 2ccc#;:\	.	2r;	.	.	2r;	.	.	2r;	.	2r;	.	.
*	*	*	*	*X8va	*	*	*	*	*	*	*	*	*	*	*	*
==	==	==	==	==	==	==	==	==	==	==	==	==	==	==	==	==
*-	*-	*-	*-	*-	*-	*-	*-	*-	*-	*-	*-	*-	*-	*-	*-	*-
!!!system-decoration: {{(s1,s2,s3,s4)}{(s5,s6)}{(s7,s8)}}
!!!RDF**kern: > = above
!!!RDF**kern: < = below
!!!RDF**dynam: > = dim
!!!RDF**dynam: < = cresc
!!!EED: Andrzej Borzym
!!!EST: 2021-05-28
!!!AIN: 1 alto 3 empty 1 soprn 1 tenor
!!!ENC: Mateusz Solarz
!!!END: 2021-05-10
